public/mdd-assessor-bot/parrot-head.svg

<svg fill="none" height="512" viewBox="0 0 512 512" width="512" xmlns="http://www.w3.org/2000/svg" xmlns:xlink="http://www.w3.org/1999/xlink"><clipPath id="a"><rect height="512" rx="110" width="512"/></clipPath><g clip-path="url(#a)"><rect fill="#fff" height="512" rx="110" width="512"/><path d="m99.5211 122.763c60.1249-76.9041 156.6049-47.5406 156.6049-47.5406v373.8016c-158.9356-39.618-174.3164-139.826-173.8501-134.699.4664 5.127-4.6608 6.991-4.6608 6.991-15.381-6.991-38.2192-121.649 21.906-198.553z" fill="#56b12e"/><path d="m412.731 123.141c-60.125-76.9039-156.605-47.5405-156.605-47.5405v373.8015c158.936-39.617 174.317-139.826 173.85-134.699-.466 5.127 4.661 6.991 4.661 6.991 15.381-6.991 38.219-121.648-21.906-198.553z" fill="#3f720d"/><path d="m111.173 310.596c-8.39 82.031 46.609 110.929 145.419 139.36l-2.33-221.391-93.684 2.33c-6.525-6.525-41.015-2.33-49.405 79.701z" fill="#000"/><path d="m401.545 310.596c8.39 82.031-46.609 110.929-145.419 139.36l2.33-221.391 93.684 2.33c6.525-6.525 41.015-2.33 49.405 79.701z" fill="#000"/><path d="m199.56 208.523c0 17.481-11.087 30.592-23.601 30.592s-23.601-13.111-23.601-30.592 11.087-30.592 23.601-30.592 23.601 13.111 23.601 30.592z" fill="#fff" stroke="#000" stroke-width="5"/><ellipse cx="180.62" cy="204.761" fill="#000" rx="20.1637" ry="28.1132" transform="matrix(.98153716 .19127156 -.19127156 .98153716 42.499713 -30.766998)"/><ellipse cx="183.883" cy="197.337" fill="#fff" rx="5.12695" ry="6.9913"/><path d="m312.711 207.004c-1.966 17.371 7.576 31.645 20.011 33.052 12.434 1.408 24.925-10.374 26.891-27.744s-7.577-31.645-20.011-33.052c-12.435-1.407-24.926 10.374-26.891 27.744z" fill="#fff" stroke="#000" stroke-width="5"/><ellipse cx="20.3271" cy="28.3411" fill="#000" rx="20.3271" ry="28.3411" transform="matrix(-.990581 .13693 .13693 .990581 348.389 174.753)"/><ellipse cx="4.13049" cy="6.18516" fill="#fff" rx="4.13049" ry="6.18516" transform="matrix(-.987262 .159103 .159103 .987262 331.528 190.251)"/><path d="m337.96 173.047c-28.856 13.137-70.486 20.716-82.312-14.652l-.473 108.127c67.174-.506 65.281-64.675 69.066-76.296s13.719-17.179 13.719-17.179z" fill="#fff"/><path d="m175.769 173.6c28.856 13.178 70.012 20.274 81.839-15.205l.946 108.971c-67.174-.506-65.282-64.876-69.066-76.533-3.785-11.658-13.719-17.233-13.719-17.233z" fill="#fff"/><path d="m163.841 296.614c-10.254-11.186 0-45.677 0-45.677s14.914 6.525 37.753-9.788z" fill="#ffe902"/><path d="m199.263 241.149c-6.525.932-49.405 45.211-55.93 82.498s34.024 90.887 49.405 97.878 56.397 28.897 63.388 39.151v-155.207s-50.337-65.252-56.863-64.32z" fill="#fd9a18"/><path d="m312.988 240.693c6.526.932 49.406 45.211 55.931 82.497 6.525 37.287-34.024 90.887-49.405 97.879-15.381 6.991-56.397 28.897-63.388 39.151v-155.207s50.337-65.252 56.862-64.32z" fill="#ed6f00"/><g fill="#000"><path d="m182.254 175.712c-1.389-.903-3.247-.508-4.15.881-.902 1.389-.508 3.247.881 4.15zm-1.634 2.516c-1.635 2.515-1.635 2.515-1.636 2.514-.001 0-.001-.001-.002-.001-.001-.001-.002-.001-.002-.002-.002-.001-.003-.001-.004-.002s-.001 0 .001.001c.004.003.015.009.031.021.033.022.09.062.168.118.158.114.4.295.705.542.612.496 1.466 1.25 2.39 2.254 1.859 2.019 3.925 4.961 4.95 8.759l5.793-1.564c-1.349-4.997-4.033-8.766-6.329-11.259-1.153-1.253-2.228-2.205-3.026-2.852-.4-.324-.733-.573-.974-.747-.121-.087-.219-.156-.292-.205-.036-.025-.066-.045-.09-.061-.011-.007-.021-.014-.029-.019-.004-.003-.008-.006-.011-.008-.002-.001-.003-.002-.005-.003 0 0-.001-.001-.002-.001s-.002-.001-1.636 2.515zm6.601 14.204c.532 1.967 1.067 5.767 1.773 10.807.689 4.916 1.515 10.789 2.63 16.574 1.111 5.765 2.534 11.582 4.458 16.368 1.859 4.62 4.466 9.014 8.392 10.928l2.629-5.394c-1.773-.864-3.676-3.353-5.454-7.773-1.711-4.254-3.048-9.631-4.134-15.264-1.081-5.612-1.888-11.339-2.579-16.272-.674-4.809-1.266-9.109-1.922-11.538z"/><path d="m331.862 175.712c1.389-.903 3.247-.508 4.15.881s.508 3.247-.881 4.15zm1.634 2.516c1.635 2.515 1.636 2.515 1.637 2.514 0 0 .001-.001.001-.001.001-.001.002-.001.003-.002s.002-.001.003-.002.001 0-.001.001c-.004.003-.014.009-.031.021-.033.022-.09.062-.168.118-.158.114-.4.295-.705.542-.612.496-1.466 1.25-2.39 2.254-1.859 2.019-3.925 4.961-4.95 8.759l-5.793-1.564c1.349-4.997 4.033-8.766 6.329-11.259 1.153-1.253 2.228-2.205 3.026-2.852.4-.324.733-.573.974-.747.121-.087.22-.156.292-.205.037-.025.067-.045.09-.061.011-.007.021-.014.029-.019.005-.003.008-.006.011-.008.002-.001.004-.002.005-.003.001 0 .002-.001.002-.001.001 0 .002-.001 1.636 2.515zm-6.601 14.204c-.531 1.967-1.067 5.767-1.773 10.807-.689 4.916-1.515 10.789-2.63 16.574-1.11 5.765-2.533 11.582-4.458 16.368-1.858 4.62-4.466 9.014-8.392 10.928l-2.629-5.394c1.773-.864 3.677-3.353 5.454-7.773 1.711-4.254 3.048-9.631 4.134-15.264 1.081-5.612 1.888-11.339 2.579-16.272.674-4.809 1.267-9.109 1.922-11.538z"/><path d="m313.454 260.259c-4.661-46.609-50.803-50.337-57.328-60.591l.466 196.688c33.092-40.549 61.524-89.489 56.862-136.097z"/><path d="m198.834 260.259c4.661-46.609 50.767-49.871 57.292-60.125l.932 196.222c-33.092-40.549-62.885-89.489-58.224-136.097z"/></g><path d="m274.604 217.949-10.982-5.913c-7.457 10.254-5.632 150.762-3.301 151.694 2.33.932 8.224-137.391 14.283-145.781z" fill="#fff"/><path d="m172.599 240.836c10.217 0 21.828-12.965 22.757-9.261.929 3.705 4.644 9.261 4.644 9.261s-9.289 12.039-27.401 11.113c-18.113-.926-23.686-20.374-19.042-22.689s8.824 11.576 19.042 11.576z" fill="#fff" stroke="#000" stroke-width="4"/><path d="m338.153 241.199c-13.47 2.361-18.579-11.537-19.508-7.76s-4.645 9.442-4.645 9.442 10.218 14.841 24.153 12.953c13.934-1.888 27.403-24.313 21.365-27.381-6.038-3.069-7.896 10.386-21.365 12.746z" fill="#fff" stroke="#000" stroke-width="4"/><path d="m112.571 108.326c69.913-65.0773 144.487-33.2407 144.487-33.2407v90.8277c-59.659 73.973-144.487-57.587-144.487-57.587z" fill="#57ba2c"/><path d="m401.315 108.346c-70.304-65.3253-145.295-33.3678-145.295-33.3678v91.1728c59.993 74.254 145.295-57.805 145.295-57.805z" fill="#57ba2c"/></g></svg>

<svg width="512" height="512" viewBox="0 0 512 512" fill="none" xmlns="http://www.w3.org/2000/svg">
<g clip-path="url(#clip0_2655_13872)">
<rect width="512" height="512" rx="110" fill="white"/>
<path d="M99.5211 122.763C159.646 45.8589 256.126 75.2224 256.126 75.2224V449.024C97.1904 409.406 81.8096 309.198 82.2759 314.325C82.7423 319.452 77.6151 321.316 77.6151 321.316C62.2341 314.325 39.3959 199.667 99.5211 122.763Z" fill="#56B12E"/>
<path d="M412.731 123.141C352.606 46.2371 256.126 75.6005 256.126 75.6005V449.402C415.062 409.785 430.443 309.576 429.976 314.703C429.51 319.83 434.637 321.694 434.637 321.694C450.018 314.703 472.856 200.046 412.731 123.141Z" fill="#3F720D"/>
<path d="M111.173 310.596C102.783 392.627 157.782 421.525 256.592 449.956L254.262 228.565L160.578 230.895C154.053 224.37 119.563 228.565 111.173 310.596Z" fill="black"/>
<path d="M401.545 310.596C409.935 392.627 354.936 421.525 256.126 449.956L258.456 228.565L352.14 230.895C358.665 224.37 393.155 228.565 401.545 310.596Z" fill="black"/>
<path d="M199.56 208.523C199.56 226.004 188.473 239.115 175.959 239.115C163.445 239.115 152.358 226.004 152.358 208.523C152.358 191.042 163.445 177.931 175.959 177.931C188.473 177.931 199.56 191.042 199.56 208.523Z" fill="white" stroke="black" stroke-width="5"/>
<ellipse cx="180.62" cy="204.761" rx="20.1637" ry="28.1132" transform="rotate(11.027 180.62 204.761)" fill="black"/>
<ellipse cx="183.883" cy="197.337" rx="5.12695" ry="6.9913" fill="white"/>
<path d="M312.711 207.004C310.745 224.375 320.287 238.649 332.722 240.056C345.156 241.464 357.647 229.682 359.613 212.312C361.579 194.942 352.036 180.667 339.602 179.26C327.167 177.853 314.676 189.634 312.711 207.004Z" fill="white" stroke="black" stroke-width="5"/>
<ellipse cx="20.3271" cy="28.3411" rx="20.3271" ry="28.3411" transform="matrix(-0.990581 0.13693 0.13693 0.990581 348.389 174.753)" fill="black"/>
<ellipse cx="4.13049" cy="6.18516" rx="4.13049" ry="6.18516" transform="matrix(-0.987262 0.159103 0.159103 0.987262 331.528 190.251)" fill="white"/>
<path d="M337.96 173.047C309.104 186.184 267.474 193.763 255.648 158.395L255.175 266.522C322.349 266.016 320.456 201.847 324.241 190.226C328.026 178.605 337.96 173.047 337.96 173.047Z" fill="white"/>
<path d="M175.769 173.6C204.625 186.778 245.781 193.874 257.608 158.395L258.554 267.366C191.38 266.86 193.272 202.49 189.488 190.833C185.703 179.175 175.769 173.6 175.769 173.6Z" fill="white"/>
<path d="M163.841 296.614C153.587 285.428 163.841 250.937 163.841 250.937C163.841 250.937 178.755 257.462 201.594 241.149L163.841 296.614Z" fill="#FFE902"/>
<path d="M199.263 241.149C192.738 242.081 149.858 286.36 143.333 323.647C136.808 360.934 177.357 414.534 192.738 421.525C208.119 428.516 249.135 450.422 256.126 460.676V305.469C256.126 305.469 205.789 240.217 199.263 241.149Z" fill="#FD9A18"/>
<path d="M312.988 240.693C319.514 241.625 362.394 285.904 368.919 323.19C375.444 360.477 334.895 414.077 319.514 421.069C304.133 428.06 263.117 449.966 256.126 460.22V305.013C256.126 305.013 306.463 239.761 312.988 240.693Z" fill="#ED6F00"/>
<path d="M182.254 175.712C180.865 174.809 179.007 175.204 178.104 176.593C177.202 177.982 177.596 179.84 178.985 180.743L182.254 175.712ZM180.62 178.228C178.985 180.743 178.985 180.743 178.984 180.742C178.983 180.742 178.983 180.741 178.982 180.741C178.981 180.74 178.98 180.74 178.98 180.739C178.978 180.738 178.977 180.738 178.976 180.737C178.975 180.736 178.975 180.737 178.977 180.738C178.981 180.741 178.992 180.747 179.008 180.759C179.041 180.781 179.098 180.821 179.176 180.877C179.334 180.991 179.576 181.172 179.881 181.419C180.493 181.915 181.347 182.669 182.271 183.673C184.13 185.692 186.196 188.634 187.221 192.432L193.014 190.868C191.665 185.871 188.981 182.102 186.685 179.609C185.532 178.356 184.457 177.404 183.659 176.757C183.259 176.433 182.926 176.184 182.685 176.01C182.564 175.923 182.466 175.854 182.393 175.805C182.357 175.78 182.327 175.76 182.303 175.744C182.292 175.737 182.282 175.73 182.274 175.725C182.27 175.722 182.266 175.719 182.263 175.717C182.261 175.716 182.26 175.715 182.258 175.714C182.258 175.714 182.257 175.713 182.256 175.713C182.255 175.713 182.254 175.712 180.62 178.228ZM187.221 192.432C187.753 194.399 188.288 198.199 188.994 203.239C189.683 208.155 190.509 214.028 191.624 219.813C192.735 225.578 194.158 231.395 196.082 236.181C197.941 240.801 200.548 245.195 204.474 247.109L207.103 241.715C205.33 240.851 203.427 238.362 201.649 233.942C199.938 229.688 198.601 224.311 197.515 218.678C196.434 213.066 195.627 207.339 194.936 202.406C194.262 197.597 193.67 193.297 193.014 190.868L187.221 192.432Z" fill="black"/>
<path d="M331.862 175.712C333.251 174.809 335.109 175.204 336.012 176.593C336.915 177.982 336.52 179.84 335.131 180.743L331.862 175.712ZM333.496 178.228C335.131 180.743 335.132 180.743 335.133 180.742C335.133 180.742 335.134 180.741 335.134 180.741C335.135 180.74 335.136 180.74 335.137 180.739C335.138 180.738 335.139 180.738 335.14 180.737C335.141 180.736 335.141 180.737 335.139 180.738C335.135 180.741 335.125 180.747 335.108 180.759C335.075 180.781 335.018 180.821 334.94 180.877C334.782 180.991 334.54 181.172 334.235 181.419C333.623 181.915 332.769 182.669 331.845 183.673C329.986 185.692 327.92 188.634 326.895 192.432L321.102 190.868C322.451 185.871 325.135 182.102 327.431 179.609C328.584 178.356 329.659 177.404 330.457 176.757C330.857 176.433 331.19 176.184 331.431 176.01C331.552 175.923 331.651 175.854 331.723 175.805C331.76 175.78 331.79 175.76 331.813 175.744C331.824 175.737 331.834 175.73 331.842 175.725C331.847 175.722 331.85 175.719 331.853 175.717C331.855 175.716 331.857 175.715 331.858 175.714C331.859 175.714 331.86 175.713 331.86 175.713C331.861 175.713 331.862 175.712 333.496 178.228ZM326.895 192.432C326.364 194.399 325.828 198.199 325.122 203.239C324.433 208.155 323.607 214.028 322.492 219.813C321.382 225.578 319.959 231.395 318.034 236.181C316.176 240.801 313.568 245.195 309.642 247.109L307.013 241.715C308.786 240.851 310.69 238.362 312.467 233.942C314.178 229.688 315.515 224.311 316.601 218.678C317.682 213.066 318.489 207.339 319.18 202.406C319.854 197.597 320.447 193.297 321.102 190.868L326.895 192.432Z" fill="black"/>
<path d="M313.454 260.259C308.793 213.65 262.651 209.922 256.126 199.668L256.592 396.356C289.684 355.807 318.116 306.867 313.454 260.259Z" fill="black"/>
<path d="M198.834 260.259C203.495 213.65 249.601 210.388 256.126 200.134L257.058 396.356C223.966 355.807 194.173 306.867 198.834 260.259Z" fill="black"/>
<path d="M274.604 217.949L263.622 212.036C256.165 222.29 257.99 362.798 260.321 363.73C262.651 364.662 268.545 226.339 274.604 217.949Z" fill="white"/>
<path d="M172.599 240.836C182.816 240.836 194.427 227.871 195.356 231.575C196.285 235.28 200 240.836 200 240.836C200 240.836 190.711 252.875 172.599 251.949C154.486 251.023 148.913 231.575 153.557 229.26C158.201 226.945 162.381 240.836 172.599 240.836Z" fill="white" stroke="black" stroke-width="4"/>
<path d="M338.153 241.199C324.683 243.56 319.574 229.662 318.645 233.439C317.716 237.216 314 242.881 314 242.881C314 242.881 324.218 257.722 338.153 255.834C352.087 253.946 365.556 231.521 359.518 228.453C353.48 225.384 351.622 238.839 338.153 241.199Z" fill="white" stroke="black" stroke-width="4"/>
<path d="M112.571 108.326C182.484 43.2487 257.058 75.0853 257.058 75.0853V165.913C197.399 239.886 112.571 108.326 112.571 108.326Z" fill="#57BA2C"/>
<path d="M401.315 108.346C331.011 43.0207 256.02 74.9782 256.02 74.9782V166.151C316.013 240.405 401.315 108.346 401.315 108.346Z" fill="#57BA2C"/>
</g>
<defs>
<clipPath id="clip0_2655_13872">
<rect width="512" height="512" rx="110" fill="white"/>
</clipPath>
</defs>
</svg>
